usr/share/icons/biglinux-icons-material/scalable/apps/cinnamon-panel-launcher.svg

<?xml version="1.0" encoding="UTF-8" standalone="no"?>
<svg
   width="24"
   height="24"
   viewBox="0 0 24 24"
   fill="none"
   version="1.1"
   id="svg14"
   sodipodi:docname="cinnamon-panel-launcher.svg"
   inkscape:version="1.3 (0e150ed6c4, 2023-07-21)"
   xmlns:inkscape="http://www.inkscape.org/namespaces/inkscape"
   xmlns:sodipodi="http://sodipodi.sourceforge.net/DTD/sodipodi-0.dtd"
   xmlns="http://www.w3.org/2000/svg"
   xmlns:svg="http://www.w3.org/2000/svg">
  <sodipodi:namedview
     id="namedview14"
     pagecolor="#ffffff"
     bordercolor="#000000"
     borderopacity="0.25"
     inkscape:showpageshadow="2"
     inkscape:pageopacity="0.0"
     inkscape:pagecheckerboard="0"
     inkscape:deskcolor="#d1d1d1"
     inkscape:zoom="11.947158"
     inkscape:cx="-13.601561"
     inkscape:cy="9.8349747"
     inkscape:window-width="2560"
     inkscape:window-height="998"
     inkscape:window-x="0"
     inkscape:window-y="0"
     inkscape:window-maximized="1"
     inkscape:current-layer="svg14" />
  <g
     id="g14"
     transform="translate(39.999987)">
    <path
       fill-rule="evenodd"
       clip-rule="evenodd"
       d="m -30.40396,1.11359 c 0.11984,0.00127 0.23439,-0.01399 0.34365,-0.0458 1.43581,-0.094054 2.87141,-0.090239 4.30701,0.01145 1.3017,0.10142 2.5618,0.38384 3.7802,0.84726 2.0256,0.83394 3.4117,2.2804 4.1581,4.33936 0.4269,1.23963 0.6789,2.51435 0.7561,3.82414 0.1067,1.6447 0.0685,3.2858 -0.1146,4.9233 -0.137,1.1509 -0.4348,2.2577 -0.8935,3.3203 -0.8506,1.8425 -2.229,3.1134 -4.1352,3.8127 -1.5447,0.5219 -3.1331,0.7967 -4.7653,0.8243 -1.8359,0.0955 -3.65337,-0.0419 -5.45253,-0.4121 -3.31158,-0.7377 -5.35438,-2.7567 -6.12839,-6.0568 -0.32847,-1.4856 -0.477381,-2.9893 -0.44675,-4.5111 -0.03665,-1.6182 0.13517,-3.21351 0.51548,-4.78589 0.8114,-3.08563 2.77019,-4.9977 5.87638,-5.73619 0.7238,-0.17695 1.45691,-0.29526 2.19935,-0.35493 z"
       fill="url(#paint0_radial_4_537)"
       id="path1-4"
       style="fill:url(#paint0_radial_4_537)" />
    <path
       opacity="0.35"
       fill-rule="evenodd"
       clip-rule="evenodd"
       d="m -28.0075,1 c -0.6843,3.7e-4 -1.3685,0.02296 -2.05281,0.06779 -0.10926,0.03181 -0.22381,0.04707 -0.34365,0.0458 -0.74244,0.05967 -1.47556,0.17798 -2.19935,0.35493 -1.57657,0.37483 -2.85756,1.05199 -3.84296,2.03148 H -19.5492 C -20.2171,2.84132 -21.025,2.31682 -21.9731,1.9265 -23.1915,1.46308 -24.4516,1.18066 -25.7533,1.07924 -26.4934,1.02681 -27.2336,1.0004 -27.9738,1 c -0.0113,-1e-6 -0.0225,-1e-6 -0.0337,0 z"
       fill="#000000"
       id="path2-7" />
    <rect
       x="-34.012993"
       y="2.05865"
       width="1.4879427"
       height="0.74378526"
       ry="0.37282282"
       opacity="0.35"
       style="fill:#000000;stroke-width:1.40646;paint-order:stroke markers fill"
       id="rect1" />
    <rect
       x="-29.860579"
       y="2.05865"
       width="3.721159"
       height="0.74378526"
       ry="0.37282282"
       opacity="0.35"
       style="fill:#000000;stroke-width:1.40646;paint-order:stroke markers fill"
       id="rect11" />
    <rect
       x="-22.743277"
       y="2.05865"
       width="0.74378526"
       height="0.74378526"
       ry="0.37282282"
       opacity="0.35"
       style="fill:#000000;stroke-width:1.40646;paint-order:stroke markers fill"
       id="rect12" />
    <rect
       x="-24.23122"
       y="2.05865"
       width="1.116608"
       height="0.74378526"
       ry="0.37282282"
       opacity="0.35"
       style="fill:#000000;stroke-width:1.40646;paint-order:stroke markers fill"
       id="rect13" />
    <rect
       x="-25.347828"
       y="2.05865"
       width="0.74378526"
       height="0.74378526"
       ry="0.37282282"
       opacity="0.35"
       style="fill:#000000;stroke-width:1.40646;paint-order:stroke markers fill"
       id="rect14" />
  </g>
  <path
     d="M13.5314 14.714C13.5314 14.714 15.4752 16.4335 15.4983 19.0735C15.5057 19.1925 15.4885 19.3116 15.4479 19.4237C15.4073 19.5357 15.3441 19.6383 15.2621 19.7251C15.1802 19.8119 15.0814 19.881 14.9716 19.9283C14.8618 19.9756 14.7435 20 14.624 20C14.5044 20 14.3861 19.9756 14.2763 19.9283C14.1666 19.881 14.0677 19.8119 13.9858 19.7251C13.9039 19.6383 13.8407 19.5357 13.8 19.4237C13.7594 19.3116 13.7422 19.1925 13.7496 19.0735C14.0785 16.0135 13.0934 16.0234 13.0934 16.0234L13.5314 14.714Z"
     fill="#525292"
     id="path2" />
  <path
     d="M10.4686 14.714C10.4686 14.714 8.52479 16.4335 8.50165 19.0735C8.49431 19.1925 8.51148 19.3116 8.5521 19.4237C8.59272 19.5357 8.65594 19.6383 8.73785 19.7251C8.81976 19.8119 8.91864 19.881 9.0284 19.9283C9.13815 19.9756 9.25646 20 9.37603 20C9.49561 20 9.61391 19.9756 9.72367 19.9283C9.83342 19.881 9.9323 19.8119 10.0142 19.7251C10.0961 19.6383 10.1593 19.5357 10.2 19.4237C10.2406 19.3116 10.2578 19.1925 10.2504 19.0735C9.92314 16.0135 10.9066 16.0234 10.9066 16.0234L10.4686 14.714Z"
     fill="#6969A6"
     id="path3" />
  <path
     d="M12.0008 6.00161C12.0008 6.00161 11.0537 7.29781 10.5182 9.48662H11.1248V10.7943H12.8752V9.48662H13.4835C12.9463 7.29781 12.0008 6.00161 12.0008 6.00161ZM13.4835 9.48662C13.5248 9.65626 13.5678 9.83247 13.6058 10.0103C13.5694 9.82753 13.5248 9.6579 13.4835 9.48662ZM12.8752 10.7943V12.1003H13.8388C13.8295 11.6636 13.7975 11.2277 13.743 10.7943H12.8752ZM13.8058 13.408H12.8752V14.7157H11.1248V13.408H10.1959C10.2289 13.8313 10.2785 14.2661 10.3612 14.7157L10.9066 17.7658H13.0934L13.6388 14.7157C13.7159 14.2828 13.7711 13.8464 13.8041 13.408H13.8058ZM10.1628 12.1003H11.1248V10.7943H10.257C10.203 11.2277 10.1716 11.6636 10.1628 12.1003ZM11.1248 12.1003V13.408H12.8752V12.1003H11.1248ZM10.5182 9.48662C10.4752 9.6579 10.4306 9.82753 10.3942 10.0103C10.4322 9.83247 10.4769 9.65626 10.5182 9.48662Z"
     fill="#6969A6"
     id="path4" />
  <path
     opacity="0.5"
     d="M10.5182 9.48663C10.4174 9.89508 10.3198 10.3249 10.257 10.7943H11.1248V9.48663H10.5182ZM11.1248 10.7943V12.1003H12.8752V10.7943H11.1248ZM12.8752 10.7943H13.743C13.6806 10.354 13.594 9.91745 13.4835 9.48663H12.8752V10.7943ZM12.8752 12.1003V13.408H13.8041C13.8388 12.9551 13.8504 12.5203 13.8372 12.1003H12.8752ZM12.8752 13.408H11.1248V14.7157H12.8752V13.408ZM11.1248 13.408V12.1003H10.1628C10.1512 12.5203 10.1628 12.9551 10.1959 13.408H11.1248Z"
     fill="white"
     id="path5" />
  <defs
     id="defs14">
    <radialGradient
       id="paint0_radial_2_35"
       cx="0"
       cy="0"
       r="1"
       gradientUnits="userSpaceOnUse"
       gradientTransform="matrix(0,22,-22,0,12.502211,6.4406243)">
      <stop
         stop-color="#68BBFF"
         stop-opacity="0.87451"
         id="stop13" />
      <stop
         offset="1"
         stop-color="#A99EFF"
         id="stop14" />
    </radialGradient>
    <radialGradient
       id="paint0_radial_4_537"
       cx="0"
       cy="0"
       r="1"
       gradientUnits="userSpaceOnUse"
       gradientTransform="matrix(0,19.405241,-26.587216,0,-28,1)"
       fx="0"
       fy="0">
      <stop
         stop-color="#68BBFF"
         stop-opacity="0.87451"
         id="stop17"
         offset="0"
         style="stop-color:#66bcff;stop-opacity:1;" />
      <stop
         offset="1"
         stop-color="#A99EFF"
         id="stop18"
         style="stop-color:#b29aff;stop-opacity:1;" />
    </radialGradient>
  </defs>
</svg>

<svg xmlns="http://www.w3.org/2000/svg" width="24" height="24" fill="none"><g transform="translate(40)"><path fill="url(#a)" fill-rule="evenodd" d="M-30.404 1.114c.12 0 .234-.014.344-.046a31.627 31.627 0 0 1 4.307.011c1.301.102 2.561.384 3.78.848 2.025.833 3.412 2.28 4.158 4.339.427 1.24.679 2.514.756 3.824a27.94 27.94 0 0 1-.115 4.923 11.876 11.876 0 0 1-.893 3.32c-.85 1.843-2.229 3.114-4.135 3.813a15.624 15.624 0 0 1-4.765.825 21.423 21.423 0 0 1-5.453-.412c-3.312-.738-5.354-2.757-6.128-6.057a19.047 19.047 0 0 1-.447-4.511 18.491 18.491 0 0 1 .515-4.786c.812-3.086 2.77-4.998 5.877-5.736a13.954 13.954 0 0 1 2.199-.355z" clip-rule="evenodd" style="fill:url(#a)"/><path fill="#000" fill-rule="evenodd" d="M-28.008 1c-.684 0-1.368.023-2.052.068-.11.032-.224.047-.344.046-.742.06-1.476.178-2.2.355-1.576.374-2.857 1.052-3.842 2.031h16.897c-.668-.659-1.476-1.183-2.424-1.573a13.537 13.537 0 0 0-3.78-.848A31.656 31.656 0 0 0-28.008 1z" clip-rule="evenodd" opacity=".35"/><rect width="1.488" height=".744" x="-34.013" y="2.059" opacity=".35" ry=".373" style="fill:#000;stroke-width:1.40646;paint-order:stroke markers fill"/><rect width="3.721" height=".744" x="-29.861" y="2.059" opacity=".35" ry=".373" style="fill:#000;stroke-width:1.40646;paint-order:stroke markers fill"/><rect width=".744" height=".744" x="-22.743" y="2.059" opacity=".35" ry=".373" style="fill:#000;stroke-width:1.40646;paint-order:stroke markers fill"/><rect width="1.117" height=".744" x="-24.231" y="2.059" opacity=".35" ry=".373" style="fill:#000;stroke-width:1.40646;paint-order:stroke markers fill"/><rect width=".744" height=".744" x="-25.348" y="2.059" opacity=".35" ry=".373" style="fill:#000;stroke-width:1.40646;paint-order:stroke markers fill"/></g><path fill="#525292" d="M13.531 14.714s1.944 1.72 1.967 4.36a.87.87 0 0 1-.526.854.879.879 0 0 1-1.172-.504.87.87 0 0 1-.05-.35c.329-3.06-.657-3.05-.657-3.05l.438-1.31Z"/><path fill="#6969A6" d="M10.469 14.714s-1.944 1.72-1.967 4.36a.87.87 0 0 0 .526.854.878.878 0 0 0 1.172-.504.87.87 0 0 0 .05-.35c-.327-3.06.657-3.05.657-3.05l-.438-1.31Z"/><path fill="#6969A6" d="M12 6.002s-.946 1.296-1.482 3.485h.607v1.307h1.75V9.487h.608c-.537-2.19-1.482-3.485-1.482-3.485Zm1.483 3.485c.042.17.085.345.123.523-.037-.182-.081-.352-.123-.523Zm-.608 1.307V12.1h.964c-.01-.436-.042-.872-.096-1.306h-.868Zm.93 2.614h-.93v1.308h-1.75v-1.308h-.93c.034.423.083.858.166 1.308l.546 3.05h2.186l.546-3.05c.077-.433.132-.87.165-1.308h.002ZM10.164 12.1h.962v-1.306h-.868c-.054.434-.085.87-.094 1.306Zm.962 0v1.308h1.75V12.1h-1.75Zm-.607-2.613c-.043.17-.087.34-.124.523.038-.178.083-.354.124-.523Z"/><path fill="#fff" d="M10.518 9.487c-.1.408-.198.838-.261 1.307h.868V9.487h-.607Zm.607 1.307V12.1h1.75v-1.306h-1.75Zm1.75 0h.868c-.062-.44-.149-.877-.26-1.307h-.608v1.307Zm0 1.306v1.308h.93c.034-.453.045-.888.032-1.308h-.962Zm0 1.308h-1.75v1.308h1.75v-1.308Zm-1.75 0V12.1h-.962c-.012.42 0 .855.033 1.308h.929Z" opacity=".5"/><defs><radialGradient id="a" cx="0" cy="0" r="1" fx="0" fy="0" gradientTransform="matrix(0 19.40524 -26.58722 0 -28 1)" gradientUnits="userSpaceOnUse"><stop offset="0" stop-color="#68BBFF" stop-opacity=".875" style="stop-color:#66bcff;stop-opacity:1"/><stop offset="1" stop-color="#A99EFF" style="stop-color:#b29aff;stop-opacity:1"/></radialGradient></defs></svg>
